assets/icons/qvision/clear_all.svg

<svg xmlns="http://www.w3.org/2000/svg" height="24" viewBox="0 0 24 24" width="24"><path d="M0 0h24v24H0z" fill="none"/><path d="M5 13h14v-2H5v2zm-2 4h14v-2H3v2zM7 7v2h14V7H7z"/></svg>

<svg width="24" height="24" viewBox="0 0 24 24" fill="none" xmlns="http://www.w3.org/2000/svg">
<g clip-path="url(#clip0_147_1789)">
<path d="M5 13H19V11H5V13ZM3 17H17V15H3V17ZM7 7V9H21V7H7Z" fill="#323232"/>
</g>
<defs>
<clipPath id="clip0_147_1789">
<rect width="24" height="24" fill="white"/>
</clipPath>
</defs>
</svg>
